svg/fluentui-system-icons/ic_fluent_alert_snooze_20_regular.svg

<svg width="20" height="20" viewBox="0 0 20 20" fill="none" xmlns="http://www.w3.org/2000/svg">
<path d="M5.00006 11.5001V8.05456C5.002 8.03668 5.00299 8.01851 5.00299 8.00012C5.00299 5.23863 7.24162 3 10.0031 3C10.4753 3 10.9313 3.06531 11.3632 3.18707C11.629 3.26201 11.9052 3.10731 11.9801 2.84153C12.0551 2.57575 11.9004 2.29954 11.6346 2.2246C11.1153 2.07818 10.5679 2 10.0031 2C6.7091 2 4.03506 4.6544 4.00328 7.9409C4.00115 7.95961 4.00006 7.97864 4.00006 7.99792V11.4001L3.07699 13.6155C2.80253 14.2742 3.28649 15.0001 4.00006 15.0001H7.5C7.5 16.3808 8.61929 17.5001 10 17.5001C11.3807 17.5001 12.5 16.3808 12.5 15.0001L16.0001 15.0001C16.7136 15.0001 17.1976 14.2742 16.9231 13.6155L16.0001 11.4001V9.99792C16.0001 9.72178 15.7762 9.49792 15.5001 9.49792C15.2239 9.49792 15.0001 9.72178 15.0001 9.99792V11.5001C15.0001 11.5661 15.0131 11.6315 15.0385 11.6924L16.0001 14.0001H4.00006L4.9616 11.6924C4.98699 11.6315 5.00006 11.5661 5.00006 11.5001ZM8.5 15.0001H11.5C11.5 15.8285 10.8284 16.5001 10 16.5001C9.17157 16.5001 8.5 15.8285 8.5 15.0001ZM13.9999 2.00012H17.4999C17.8755 2.00012 18.1068 2.39274 17.9521 2.71416L17.9095 2.78685L14.9602 7.00012H17.4999C17.776 7.00012 17.9999 7.22398 17.9999 7.50012C17.9999 7.74558 17.823 7.94973 17.5898 7.99207L17.4999 8.00012H13.9999C13.6243 8.00012 13.393 7.60751 13.5476 7.28609L13.5903 7.21339L16.5396 3.00012H13.9999C13.7238 3.00012 13.4999 2.77626 13.4999 2.50012C13.4999 2.25466 13.6768 2.05051 13.91 2.00818L13.9999 2.00012ZM9.50096 6.00012H12.001C12.3966 6.00012 12.6247 6.43082 12.4327 6.75303L12.3851 6.82021L10.5685 9.00012H12.001C12.2771 9.00012 12.501 9.22398 12.501 9.50012C12.501 9.74558 12.3241 9.94973 12.0908 9.99207L12.001 10.0001H9.50096C9.1053 10.0001 8.87719 9.56942 9.06918 9.24722L9.11684 9.18003L10.9334 7.00012H9.50096C9.22481 7.00012 9.00096 6.77626 9.00096 6.50012C9.00096 6.25466 9.17783 6.05051 9.41108 6.00818L9.50096 6.00012Z" fill="#212121"/>
</svg>

<svg xmlns="http://www.w3.org/2000/svg" width="20" height="20"><path d="M5 11.5V8.055A.505.505 0 0 0 5.003 8a5 5 0 0 1 6.36-4.813.5.5 0 1 0 .272-.962A6 6 0 0 0 4.004 7.94.504.504 0 0 0 4 7.998V11.4l-.923 2.216A1 1 0 0 0 4 15h3.5a2.5 2.5 0 0 0 5 0H16a1 1 0 0 0 .923-1.384L16 11.4V9.998a.5.5 0 0 0-1 0V11.5a.5.5 0 0 0 .039.192L16 14H4l.962-2.308A.5.5 0 0 0 5 11.5ZM8.5 15h3a1.5 1.5 0 0 1-3 0ZM14 2h3.5a.5.5 0 0 1 .452.714l-.043.073L14.96 7h2.54a.5.5 0 0 1 .09.992L17.5 8H14a.5.5 0 0 1-.452-.714l.042-.073L16.54 3H14a.5.5 0 0 1-.09-.992L14 2ZM9.5 6H12a.5.5 0 0 1 .432.753l-.048.067L10.57 9H12a.5.5 0 0 1 .09.992L12 10H9.5a.5.5 0 0 1-.432-.753l.048-.067L10.933 7H9.501a.5.5 0 0 1-.09-.992L9.501 6Z"/></svg>
